X:1
T:Title
%%score { 1 | 2 }
L:1/8
Q:1/4=100
M:6/8
K:Eb
V:1 treble nm="Grand Piano"
V:2 bass 
V:1
 GGG GFG | [GB]>[GB][GB] [GB] [EG]2 | [DF][DF][DF] [DF][CE][DF] | [EG]6 | %4
w: W.~A.~Spenser * * * * *||||
 [GB]>[GB][GB] [GB][B,EG][EGB] |[M:7/8] [EAc]>[EAc][EAc] [EAc] [CAe]3 | %6
w: ||
[M:3/4] [B,EG]>[EB] [EB][DB] [DA][DF] | E6 | G>G GA G2 | [GB]>[GB] [GB][Ac] [GB]2 | %10
w: ||||
 [EG][GB] [GB][Ac] [GB]>G | F6 | G>[GB] [GB][Ac] [GB]2 |[M:7/8] [Ge]>[Ge][Ge] [Af] [Ae]3 | %14
w: ||||
[M:3/4] [EG][EB] [EB][DB] [DA][DF] | [B,E]6 |] %16
w: ||
V:2
 [E,B,E][E,B,E][E,B,E] [E,B,E][E,B,D][E,B,E] | [E,E]>[E,E][E,E] [E,E] [E,B,]2 | %2
 [B,,B,][B,,B,][B,,B,] [B,,B,][B,,B,][B,,B,] | [E,B,]6 | [E,E]>[E,E][E,E] [E,E]E,E, | %5
[M:7/8] A,,>A,,A,, A,, A,,3 |[M:3/4] B,,>[B,,G,] [B,,G,][B,,F,] [B,,F,][B,,A,] | [E,G,B,]6 | %8
 [E,B,E]>[E,B,E] [E,B,E][E,CE] [E,B,E]2 | [E,E]>[E,E] [E,E][E,E] [E,E]2 | %10
 [E,B,][E,E] [E,E][E,E] [E,E]>[G,B,E] | [B,D]6 | [E,B,E]>[E,E] [E,E][E,E] [E,E]2 | %13
[M:7/8] [E,B,]>[E,B,][E,B,] [A,C] [A,C]3 |[M:3/4] [B,,B,][B,,G,] [B,,G,][B,,F,] [B,,F,][B,,A,] | %15
 [E,G,]6 |] %16

